!!!OTL: DROBEN AUF DEM KIRCHHOF
!!!ARE: Europa, Mitteleuropa, Deutschland, Rheinland
!!!SCT: K2221
!!!YEM: Copyright 1995, estate of Helmut Schaffrath.
**kern
*ICvox
*Ivox
*M2/4
*k[]
*C:
=1
{8g
8g
8a
8b
=2
4g
8e}
{8c
=3
8g
8g
8e
8a
=4
4g
8e}
{8c
=5
8g
8g
8e
8a
=6
8g
8g
8e}
{8e
=7
8g
8g
8e
8a
=8
4g
8e}
{16g
16g
=9
8g
8f
8e
16g
16g
=10
8g
8f
8e}
{16e
16e
=11
8f
8f
8g
8g
=12
4e
4r}
==
!!!AGN: Kinder - Lied, Reigen, Tanz - Spiel, Brautwerbung
!!!ONB: ESAC (Essen Associative Code) Database: KINDER
!!!AMT: simple duple
!!!AIN: vox
!!!EED: Helmut Schaffrath
!!!EEV: 1.0
*-
